X:1
T:Old Mose [2]
N:From the playing of farmer and fiddler Howard Sims (1896-1977) of
N:Modesto, southern Illinois
M:C|
L:1/8
R:Reel
D:Pickaway Press, Howard Sims - "Dear Old Illinois" (2007)
D: https://www.slippery-hill.com/recording/old-mose
Z:Transcribed by Andrew Kuntz
K:C
(3G,A,B,|C2C2 EFGE| F2  F2 ABcA|G2F2 EDC2 |D4 DE DC|
C2C2 EF G2|F2F2 ABcA|G2G2 A2B2|c4 c4:|
|:c2B2c2e2|dcBA G2AB|c2B2c2e2|d4d2 A(A/B/|
c2)B2c2e2|dcBA G2 AB|c2E2 FE D2|C4 C4:|]

